img/gmail.svg

<svg width="26" height="26" viewBox="0 0 26 26" fill="none" xmlns="http://www.w3.org/2000/svg">
<path d="M26 13C26 20.1797 20.1797 26 13 26C5.8203 26 0 20.1797 0 13C0 5.8203 5.8203 0 13 0C20.1797 0 26 5.8203 26 13Z" fill="#D2D5D3"/>
<path d="M17.9623 11.9072V10.135H16.7809V11.9072H15.0087V13.0886H16.7809V14.8608H17.9623V13.0886H19.7345V11.9072H17.9623ZM13.4138 13.9156L12.764 13.443C12.5277 13.2658 12.2914 13.0295 12.2914 12.616C12.2914 12.2025 12.5868 11.8481 12.8821 11.6709C13.6501 11.0802 14.418 10.4304 14.418 9.1308C14.418 7.8903 13.6501 7.18143 13.2366 6.827H14.2408L14.9497 6H11.2872C8.68805 6 7.38848 7.65401 7.38848 9.42616C7.38848 10.7848 8.45177 12.2616 10.3421 12.2616H10.8146C10.7556 12.4388 10.5783 12.7342 10.5783 13.0295C10.5783 13.6203 10.8146 13.8565 11.11 14.211C10.283 14.27 8.74713 14.4473 7.62476 15.1561C6.56147 15.8059 6.26611 16.692 6.26611 17.3418C6.26611 18.7004 7.50662 20 10.1648 20C13.3547 20 14.8906 18.2278 14.8906 16.5148C14.8906 15.2743 14.2408 14.6245 13.4138 13.9156ZM8.92434 8.54008C8.92434 7.24051 9.69227 6.64979 10.5193 6.64979C12.0551 6.64979 12.8821 8.7173 12.8821 9.89873C12.8821 11.4346 11.6416 11.73 11.1691 11.73C9.69227 11.73 8.92434 9.89873 8.92434 8.54008ZM11.0509 19.173C9.10153 19.173 7.86103 18.2869 7.86103 16.9873C7.86103 15.6877 9.04246 15.2742 9.39689 15.097C10.1648 14.8607 11.169 14.8017 11.3463 14.8017C11.5235 14.8017 11.6416 14.8017 11.7598 14.8017C13.1775 15.8059 13.7682 16.2194 13.7682 17.1645C13.7682 18.2869 12.6459 19.173 11.0509 19.173Z" fill="white"/>
</svg>

<svg width="26" height="26" fill="none" xmlns="http://www.w3.org/2000/svg"><path d="M26 13c0 7.18-5.82 13-13 13S0 20.18 0 13 5.82 0 13 0s13 5.82 13 13z" fill="#D2D5D3"/><path d="M17.962 11.907v-1.772h-1.181v1.772h-1.772v1.182h1.772v1.772h1.181v-1.772h1.773v-1.182h-1.773zm-4.548 2.009l-.65-.473c-.236-.177-.473-.413-.473-.827 0-.413.296-.768.591-.945.768-.59 1.536-1.24 1.536-2.54 0-1.24-.768-1.95-1.181-2.304h1.004L14.95 6h-3.663C8.688 6 7.388 7.654 7.388 9.426c0 1.359 1.064 2.836 2.954 2.836h.473c-.06.177-.237.472-.237.768 0 .59.237.827.532 1.181-.827.059-2.363.236-3.485.945-1.064.65-1.359 1.536-1.359 2.186C6.266 18.7 7.506 20 10.165 20c3.19 0 4.726-1.772 4.726-3.485 0-1.24-.65-1.89-1.477-2.6zM8.924 8.54c0-1.3.768-1.89 1.595-1.89 1.536 0 2.363 2.067 2.363 3.249 0 1.536-1.24 1.831-1.713 1.831-1.477 0-2.245-1.831-2.245-3.19zm2.127 10.633c-1.95 0-3.19-.886-3.19-2.186 0-1.3 1.181-1.713 1.536-1.89.768-.236 1.772-.295 1.95-.295h.413c1.418 1.004 2.008 1.417 2.008 2.363 0 1.122-1.122 2.008-2.717 2.008z" fill="#fff"/></svg>
